!! 00000] TT[WS
!!!OTL: Xi jindan
!!!ARE: Asia, China, Shanxi Ningwu
!! Ethnic Group: Han
!! WI, 266 (1)
!!!SCT: J0314
!!!YEM: Copyright 1995, estate of Helmut Schaffrath.
**kern
*ICvox
*Ivox
*M2/4
*k[f#]
*G:
{8dd
8dd
8ee
8dd
=1
4a
4r
=2
8dd
8dd
8ee
8dd
=3
4a
4r}
=4
{8.b
16b
4b
=5
8a
8b
8a
8f#
=6
8dd
8d
8f#
8e
=7
4.d
8e}
=8
{8a
8b
8a
8g
=9
8e
8e
8g
8e
=10
2d}
==
!!!AGN: Xiaodiao
!!!ONB: ESAC (Essen Associative Code) Database: CHINA
!!!AMT: simple duple
!!!AIN: vox
!!!EED: Helmut Schaffrath
!!!EEV: 1.0
*-
